src/lib/packages/icons/src/assets/filled/glass.svg

<svg width="24" height="24" viewBox="0 0 24 24" fill="none" xmlns="http://www.w3.org/2000/svg">
<path d="M18.4099 3.64C18.1699 3.39 17.84 3.25 17.5 3.25H6.49995C6.15995 3.25 5.82998 3.39 5.58998 3.64C5.34998 3.89 5.22995 4.23001 5.24995 4.57001L6.03993 17.23C6.16993 19.33 7.75994 20.74 9.98994 20.74H13.9899C16.2199 20.74 17.81 19.33 17.94 17.22L18.7399 4.56C18.7599 4.22 18.64 3.88 18.4 3.62L18.4099 3.64ZM17.2399 4.75L17.01 8.48C16.37 8.67 14.84 8.94 12.19 8.28C9.85995 7.7 8.02993 7.86 6.97993 8.06L6.76997 4.75999H17.2399V4.75Z" fill="currentColor"/>
</svg>

<svg xmlns="http://www.w3.org/2000/svg" width="24" height="24" fill="none"><path fill="currentColor" d="M18.41 3.64c-.24-.25-.57-.39-.91-.39h-11c-.34 0-.67.14-.91.39s-.36.59-.34.93l.79 12.66c.13 2.1 1.72 3.51 3.95 3.51h4c2.23 0 3.82-1.41 3.95-3.52l.8-12.66c.02-.34-.1-.68-.34-.94l.01.02Zm-1.17 1.11-.23 3.73c-.64.19-2.17.46-4.82-.2-2.33-.58-4.16-.42-5.21-.22l-.21-3.3h10.47v-.01Z"/></svg>
